bb-final/contacto/img/trabajar.svg

<?xml version="1.0" encoding="UTF-8"?>
<svg width="250px" height="250px" viewBox="0 0 250 250" version="1.1" xmlns="http://www.w3.org/2000/svg" xmlns:xlink="http://www.w3.org/1999/xlink">
    <title>Artboard</title>
    <g id="Artboard" stroke="none" stroke-width="1" fill="none" fill-rule="evenodd">
        <circle id="Oval" fill="#260F88" cx="125" cy="126" r="125"></circle>
        <g id="Group-79" transform="translate(17.000000, 66.000000)">
            <path d="M63,77.9291213 L63,80.5009165 C63,84.6289869 59.6322415,88 55.5018333,88 C51.3732584,88 48,84.6289869 48,80.5009165 C48,76.36918 51.3714251,73 55.5018333,73 L63,73 L63,77.9291213 Z M60.042899,75.9585727 L55.5018333,75.9585727 C53.0030555,75.9585727 50.9589342,78.0024441 50.9589342,80.5009165 C50.9589342,82.9957228 53.0067221,85.0377612 55.5018333,85.0377612 C57.9987778,85.0377612 60.042899,82.9957228 60.042899,80.5009165 L60.042899,75.9585727 Z" id="Fill-1" fill="#FF00CC"></path>
            <polygon id="Fill-3" fill="#FF00CC" points="63.8884847 73.130203 122 73.130203 122 76 61 76 61 43 63.8884847 43"></polygon>
            <path d="M66.063614,67.2386122 L33.2404365,67.2386122 C26.2963111,67.2386122 20.5769849,72.9388376 20.5769849,79.8601556 C20.5769849,86.7796805 26.2963111,92.4852852 33.2404365,92.4852852 L76.3188337,92.4852852 L76.3188337,95.3757423 L33.2404365,95.3757423 C24.6920221,95.3757423 17.6759555,88.3809077 17.6759555,79.8601556 C17.6759555,71.3429897 24.6920221,64.3427758 33.2404365,64.3427758 L81.8852849,64.3427758 C84.8402701,64.3427758 87.2628904,61.9274869 87.2628904,58.981444 L87.2628904,45.0886016 L91.8761205,45.0886016 C92.8779019,45.0886016 93.3203403,43.869302 92.9768211,43.0319301 L84.1064698,20.8299199 C80.2540179,12.353995 71.7901344,6.89225024 62.4287844,6.89225024 C49.2887222,6.89225024 38.6396244,17.5073286 38.6396244,30.6094195 C38.6396244,36.8152955 41.0478565,42.7163467 45.3931056,47.1578246 L47.795942,49.6143546 L33.2404365,49.6143546 C16.5392844,49.6143546 2.90282786,63.2095445 2.90282786,79.8601556 C2.90282786,96.5089737 16.5392844,110.104164 33.2404365,110.104164 L76.3188337,110.104164 L76.3188337,113 L33.2404365,113 C14.9385925,113 0,98.1048216 0,79.8601556 C0,61.6136966 14.9385925,46.7238974 33.2404365,46.7238974 L41.1881418,46.7238974 C37.6612239,42.1138693 35.7385951,36.4799882 35.7385951,30.6094195 C35.7385951,15.9114807 47.6880302,4 62.4287844,4 C72.9447909,4 82.4500234,10.143118 86.7646975,19.6679991 L86.7898769,19.7253779 L95.6656238,41.9506983 C96.7915038,44.6797776 94.9606,47.984438 91.8761205,47.984438 L90.1639197,47.984438 L90.1639197,58.981444 C90.1639197,63.5233348 86.4427606,67.2386122 81.8852849,67.2386122 L66.063614,67.2386122 Z" id="Fill-5" fill="#E69BEB"></path>
            <path d="M71.8936628,98.2456738 L71.8936628,110.034085 L78.9331749,110.034085 C82.8996278,110.034085 86.1520832,106.706607 86.1520832,102.650498 L86.1520832,99.0807551 L100.636543,99.0715784 C103.139122,99.0715784 105.268556,97.3224961 105.907207,94.960409 L71.8936628,94.960409 L71.8936628,98.2456738 Z M89.04754,102.039329 L89.04754,102.650498 C89.04754,108.343734 84.4980491,113 78.9331749,113 L69,113 L69,92 L109,92 L109,93.4811222 C109,98.1906135 105.239853,102.031987 100.636543,102.035658 L89.04754,102.039329 Z" id="Fill-7" fill="#FF69AA"></path>
            <path d="M62,16.8892341 C55.3136201,16.8892341 49.8942652,22.3110288 49.8942652,29 C49.8942652,35.6871789 55.3136201,41.1053889 62,41.1053889 C68.6863799,41.1053889 74.1057348,35.6871789 74.1057348,29 C74.1057348,22.3110288 68.6863799,16.8892341 62,16.8892341 M62,14 C70.2849462,14 77,20.7158561 77,29 C77,37.2841439 70.2849462,44 62,44 C53.7168459,44 47,37.2841439 47,29 C47,20.7158561 53.7168459,14 62,14" id="Fill-9" fill="#FF637A"></path>
            <path d="M65.1019337,29.5017951 C65.1019337,27.5110467 63.4895028,25.899061 61.4982044,25.899061 C59.5069061,25.899061 57.8944751,27.5110467 57.8944751,29.5017951 C57.8944751,31.4889533 59.5087017,33.1045291 61.4982044,33.1045291 C63.4895028,33.1045291 65.1019337,31.4925435 65.1019337,29.5017951 M61.4982044,23 C65.0893646,23 68,25.9116266 68,29.5017951 C68,33.0919635 65.0893646,36 61.4982044,36 C57.9088398,36 55,33.0919635 55,29.5017951 C55,25.9116266 57.9088398,23 61.4982044,23" id="Fill-11" fill="#A30062"></path>
            <path d="M164.365309,0 L188.226754,0 C203.504817,0 216,12.5804997 216,27.9588707 L216,52.0375214 C216,67.4213042 203.506609,80 188.226754,80 L134.773246,80 C119.493391,80 107,67.4213042 107,52.0375214 L107,27.9588707 C107,12.5804997 119.495183,0 134.773246,0 L164.365309,0 Z M166.142911,2.90971408 L134.773246,2.90971408 C121.0918,2.90971408 109.890396,14.1859836 109.890396,27.9588707 L109.890396,52.0375214 C109.890396,65.8140164 121.0918,77.0866781 134.773246,77.0866781 L188.226754,77.0866781 C201.909992,77.0866781 213.111396,65.8140164 213.111396,52.0375214 L213.111396,27.9588707 C213.111396,14.1859836 201.909992,2.90971408 188.226754,2.90971408 L166.142911,2.90971408 Z" id="Fill-13" fill="#DB6BBF"></path>
            <path d="M160.595375,87.8353841 L131.439458,87.8353841 C123.451782,87.8353841 116.910182,94.214559 116.910182,101.998242 C116.910182,109.787199 123.451782,116.166374 131.439458,116.166374 L187.562345,116.166374 C195.548218,116.166374 202.089818,109.787199 202.089818,101.998242 C202.089818,94.214559 195.548218,87.8353841 187.562345,87.8353841 L160.595375,87.8353841 Z M159.080782,85 L187.562345,85 C197.156571,85 205,92.6448144 205,101.998242 C205,111.35167 197.156571,119 187.562345,119 L131.439458,119 C121.845232,119 114,111.35167 114,101.998242 C114,92.6448144 121.845232,85 131.439458,85 L159.080782,85 Z" id="Fill-15" fill="#F092B7"></path>
            <path d="M153.45876,69.8175629 L147.397641,69.8175629 C143.049367,69.8175629 139.496797,66.3344998 139.496797,62.0730787 L139.496797,51.9668644 L137.977892,51.9668644 C135.003521,51.9668644 133.248987,48.8481013 134.312945,46.2553517 L141.552213,28.617902 C144.756776,18.1775979 154.591595,11 165.740502,11 C179.69159,11 191,22.0871586 191,35.7635126 C191,42.075676 188.571202,48.0892911 184.184866,52.6830249 L184.184866,76 L181.259433,76 L181.259433,51.519042 L181.678129,51.0996528 C185.790772,46.992837 188.074567,41.5212292 188.074567,35.7635126 C188.074567,23.6687536 178.074808,13.8699729 165.740502,13.8699729 C155.862182,13.8699729 147.149323,20.2407797 144.336268,29.5046614 L144.318142,29.566859 L137.028124,47.3269268 C136.739931,48.0270935 137.098813,49.1004456 137.977892,49.1004456 L142.42223,49.1004456 L142.42223,62.0730787 C142.42223,64.7511278 144.662524,66.9511442 147.397641,66.9511442 L156.384193,66.9511442 L156.384193,76 L153.45876,76 L153.45876,69.8175629 Z" id="Fill-17" fill="#FF2B59"></path>
            <path d="M156,30.9894096 C153.784013,30.9894096 151.990471,32.7871326 151.990471,35.0018533 C151.990471,37.2184273 153.784013,39.0105904 156,39.0105904 C158.214134,39.0105904 160.009529,37.2184273 160.009529,35.0018533 C160.009529,32.7871326 158.214134,30.9894096 156,30.9894096 M156,28 C159.865008,28 163,31.1358221 163,35.0018533 C163,38.8678846 159.865008,42 156,42 C152.134992,42 149,38.8678846 149,35.0018533 C149,31.1358221 152.134992,28 156,28" id="Fill-19" fill="#DB6BBF"></path>
            <path d="M192.163026,100 L186.836974,100 C186.378201,100 186,100.503558 186,101.116585 L186,102.881226 C186,103.494253 186.378201,104 186.836974,104 L192.163026,104 C192.623444,104 193,103.494253 193,102.881226 L193,101.116585 C193,100.503558 192.623444,100 192.163026,100" id="Fill-21" fill="#FF8295"></path>
            <path d="M182.001097,100 L182.001097,100 C183.102578,100 184,100.897646 184,101.994527 L184,102.005473 C184,103.102354 183.102578,104 182.001097,104 C180.90181,104 180,103.102354 180,102.005473 L180,101.994527 C180,100.897646 180.90181,100 182.001097,100" id="Fill-23" fill="#FF8295"></path>
            <path d="M176,100 L176,100 C177.09989,100 177.997805,100.897646 177.997805,101.994527 L178,102.005473 C178,103.102354 177.09989,104 176,104 C174.90011,104 174,103.102354 174,102.005473 L174,101.994527 C174,100.897646 174.90011,100 176,100" id="Fill-25" fill="#FF8295"></path>
            <path d="M171.001097,100 L171.001097,100 C172.100384,100 173,100.897646 173,101.994527 L173,102.005473 C173,103.102354 172.100384,104 171.001097,104 C169.899616,104 169,103.102354 169,102.005473 L169,101.994527 C169,100.897646 169.899616,100 171.001097,100" id="Fill-27" fill="#FF8295"></path>
            <path d="M163.998903,100 L163.998903,100 C165.09819,100 166,100.897646 166,101.994527 L166,102.005473 C166,103.102354 165.09819,104 163.998903,104 C162.897422,104 162,103.102354 162,102.005473 L162,101.994527 C162,100.897646 162.897422,100 163.998903,100" id="Fill-29" fill="#FF8295"></path>
            <path d="M160,100 L160,100 C161.09989,100 162,100.897646 162,101.994527 L162,102.005473 C162,103.102354 161.09989,104 160,104 C158.90011,104 158,103.102354 158,102.005473 L158,101.994527 C158,100.897646 158.90011,100 160,100" id="Fill-31" fill="#FF8295"></path>
            <path d="M153.001097,100 L153.001097,100 C154.100384,100 155,100.897646 155,101.994527 L155,102.005473 C155,103.102354 154.100384,104 153.001097,104 C151.90181,104 151,103.102354 151,102.005473 L151,101.994527 C151,100.897646 151.90181,100 153.001097,100" id="Fill-33" fill="#FF8295"></path>
            <path d="M148.996709,100 L148.998903,100 C150.09819,100 151,100.897646 151,101.994527 L151,102.005473 C151,103.102354 150.09819,104 148.998903,104 L148.996709,104 C147.897422,104 147,103.102354 147,102.005473 L147,101.994527 C147,100.897646 147.897422,100 148.996709,100" id="Fill-35" fill="#FF8295"></path>
            <path d="M143.001097,100 L143.001097,100 C144.100384,100 145,100.897646 145,101.994527 L145,102.005473 C145,103.102354 144.100384,104 143.001097,104 C141.899616,104 141,103.102354 141,102.005473 L141,101.994527 C141,100.897646 141.899616,100 143.001097,100" id="Fill-37" fill="#FF8295"></path>
            <path d="M136.998903,100 L136.998903,100 C138.09819,100 139,100.897646 139,101.994527 L139,102.005473 C139,103.102354 138.09819,104 136.998903,104 C135.899616,104 135,103.102354 135,102.005473 L135,101.994527 C135,100.897646 135.899616,100 136.998903,100" id="Fill-39" fill="#FF8295"></path>
            <path d="M132.002195,100 L132.002195,100 C133.102086,100 134,100.897646 134,101.994527 L134,102.005473 C134,103.102354 133.102086,104 132.002195,104 C130.90011,104 130,103.102354 130,102.005473 L130,101.994527 C130,100.897646 130.90011,100 132.002195,100" id="Fill-41" fill="#FF8295"></path>
            <path d="M125.003291,100 L125.003291,100 C126.102578,100 127,100.897646 127,101.994527 L127,102.005473 C127,103.102354 126.102578,104 125.001097,104 C123.90181,104 123,103.102354 123,102.005473 L123,101.994527 C123,100.897646 123.90181,100 125.003291,100" id="Fill-43" fill="#FF8295"></path>
            <path d="M184.998902,93 L185.001098,93 C186.101593,93 187,93.8986301 187,94.9967123 L187,95.0010959 C187,96.1013699 186.101593,97 185.001098,97 L184.998902,97 C183.898407,97 183,96.1013699 183,95.0010959 L183,94.9967123 C183,93.8986301 183.898407,93 184.998902,93" id="Fill-45" fill="#FF8295"></path>
            <path d="M181,93 L181,93 C182.09989,93 183,93.8986301 183,94.9967123 L183,95.0010959 C183,96.1013699 182.09989,97 181,97 C179.90011,97 179,96.1013699 179,95.0010959 L179,94.9967123 C179,93.8986301 179.90011,93 181,93" id="Fill-47" fill="#FF8295"></path>
            <path d="M175.001097,93 L175.001097,93 C176.100384,93 177,93.8986301 177,94.9967123 L177,95.0010959 C177,96.1013699 176.100384,97 175.001097,97 C173.90181,97 173,96.1013699 173,95.0010959 L173,94.9967123 C173,93.8986301 173.90181,93 175.001097,93" id="Fill-49" fill="#FF8295"></path>
            <path d="M171,93 L171,93 C172.09989,93 173,93.8986301 173,94.9967123 L173,95.0010959 C173,96.1013699 172.09989,97 171,97 C169.90011,97 169,96.1013699 169,95.0010959 L169,94.9967123 C169,93.8986301 169.90011,93 171,93" id="Fill-51" fill="#FF8295"></path>
            <path d="M164,93 L164,93 C165.09989,93 166,93.8986301 166,94.9967123 L166,95.0010959 C166,96.1013699 165.09989,97 164,97 C162.90011,97 162,96.1013699 162,95.0010959 L162,94.9967123 C162,93.8986301 162.90011,93 164,93" id="Fill-53" fill="#FF8295"></path>
            <path d="M159.001097,93 L159.001097,93 C160.100384,93 161,93.8986301 161,94.9967123 L161,95.0010959 C161,96.1013699 160.100384,97 159.001097,97 C157.90181,97 157,96.1013699 157,95.0010959 L157,94.9967123 C157,93.8986301 157.90181,93 159.001097,93" id="Fill-55" fill="#FF8295"></path>
            <path d="M153.001097,93 L153.001097,93 C154.100384,93 155,93.8986301 155,94.9967123 L155,95.0010959 C155,96.1013699 154.100384,97 153.001097,97 C151.90181,97 151,96.1013699 151,95.0010959 L151,94.9967123 C151,93.8986301 151.90181,93 153.001097,93" id="Fill-57" fill="#FF8295"></path>
            <path d="M148.997807,93 L148.997807,93 C150.096491,93 151,93.8986301 151,94.9967123 L151,95.0010959 C151,96.1013699 150.096491,97 148.997807,97 C147.899123,97 147,96.1013699 147,95.0010959 L147.002193,94.9967123 C147.002193,93.8986301 147.899123,93 148.997807,93" id="Fill-59" fill="#FF8295"></path>
            <path d="M143.001097,93 L143.001097,93 C144.100384,93 145,93.8986301 145,94.9967123 L145,95.0010959 C145,96.1013699 144.100384,97 143.001097,97 C141.90181,97 141,96.1013699 141,95.0010959 L141,94.9967123 C141,93.8986301 141.90181,93 143.001097,93" id="Fill-61" fill="#FF8295"></path>
            <path d="M137.997805,93 L137.997805,93 C139.097695,93 140,93.8986301 140,94.9967123 L140,95.0010959 C140,96.1013699 139.097695,97 137.997805,97 C136.897914,97 136,96.1013699 136,95.0010959 L136,94.9967123 C136,93.8986301 136.897914,93 137.997805,93" id="Fill-63" fill="#FF8295"></path>
            <path d="M133,92 L133,92 C134.100848,92 135,92.8997647 135,93.9952941 L135,94.0047059 C135,95.1021176 134.100848,96 133,96 C131.899152,96 131,95.1021176 131,94.0047059 L131,93.9952941 C131,92.8997647 131.899152,92 133,92" id="Fill-65" fill="#FF8295"></path>
            <path d="M184.998903,107 L184.998903,107 C186.09819,107 187,107.89863 187,108.996712 L187,109.003288 C187,110.10137 186.09819,111 184.998903,111 C183.897422,111 183,110.10137 183,109.003288 L183,108.996712 C183,107.89863 183.897422,107 184.998903,107" id="Fill-67" fill="#FF8295"></path>
            <path d="M179.001097,107 L179.001097,107 C180.100384,107 181,107.89863 181,108.996712 L181,109.003288 C181,110.10137 180.100384,111 179.001097,111 C177.90181,111 177,110.10137 177,109.003288 L177,108.996712 C177,107.89863 177.90181,107 179.001097,107" id="Fill-69" fill="#FF8295"></path>
            <path d="M136.998903,107 L136.998903,107 C138.100384,107 139,107.89863 139,108.996712 L139,109.003288 C139,110.10137 138.100384,111 136.998903,111 C135.899616,111 135,110.10137 135,109.003288 L135,108.996712 C135,107.89863 135.899616,107 136.998903,107" id="Fill-71" fill="#FF8295"></path>
            <path d="M132,107 L132,107 C133.09989,107 134,107.89863 134,108.996712 L134,109.003288 C134,110.10137 133.09989,111 132,111 C130.90011,111 130,110.10137 130,109.003288 L130,108.996712 C130,107.89863 130.90011,107 132,107" id="Fill-73" fill="#FF8295"></path>
            <path d="M143.644115,107 L174.35228,107 C175.26087,107 176,107.89863 176,109.003288 C176,110.10137 175.26087,111 174.35228,111 L143.644115,111 C142.73913,111 142,110.10137 142,109.003288 C142,107.89863 142.73913,107 143.644115,107" id="Fill-75" fill="#FF8295"></path>
            <path d="M158.707784,53.2849914 C154.948012,58.1371756 148.989199,61 142.594745,61 C142.395865,61 142.196986,61 142,60.9964348 L142,58.1175672 C142.196986,58.1211324 142.395865,58.1246976 142.594745,58.1246976 C148.011848,58.1246976 153.05392,55.6986054 156.237889,51.5897572 C156.734141,50.9498108 157.692551,50.808987 158.37253,51.2742405 C159.052509,51.7430592 159.204036,52.6450449 158.707784,53.2849914" id="Fill-77" fill="#C77EB5"></path>
        </g>
    </g>
</svg>

<?xml version="1.0" encoding="utf-8"?>
<!-- Generator: Adobe Illustrator 25.1.0, SVG Export Plug-In . SVG Version: 6.00 Build 0)  -->
<svg version="1.1" id="Capa_1" xmlns="http://www.w3.org/2000/svg" xmlns:xlink="http://www.w3.org/1999/xlink" x="0px" y="0px"
	 viewBox="0 0 250 250" style="enable-background:new 0 0 250 250;" xml:space="preserve">
<style type="text/css">
	.st0{fill-rule:evenodd;clip-rule:evenodd;}
	.st1{fill-rule:evenodd;clip-rule:evenodd;fill:#FF00CC;}
	.st2{fill-rule:evenodd;clip-rule:evenodd;fill:#E69BEB;}
	.st3{fill-rule:evenodd;clip-rule:evenodd;fill:#FF69AA;}
	.st4{fill-rule:evenodd;clip-rule:evenodd;fill:#FF637A;}
	.st5{fill-rule:evenodd;clip-rule:evenodd;fill:#A30062;}
	.st6{fill-rule:evenodd;clip-rule:evenodd;fill:#DB6BBF;}
	.st7{fill-rule:evenodd;clip-rule:evenodd;fill:#F092B7;}
	.st8{fill-rule:evenodd;clip-rule:evenodd;fill:#FF2B59;}
	.st9{fill-rule:evenodd;clip-rule:evenodd;fill:#FF8295;}
	.st10{fill-rule:evenodd;clip-rule:evenodd;fill:#C77EB5;}
</style>
<g id="Artboard">
	<circle id="Oval" class="st0" cx="125" cy="126" r="125"/>
	<g id="Group-79" transform="translate(17.000000, 66.000000)">
		<path id="Fill-1" class="st1" d="M63,77.9v2.6c0,4.1-3.4,7.5-7.5,7.5c-4.1,0-7.5-3.4-7.5-7.5c0-4.1,3.4-7.5,7.5-7.5H63V77.9z
			 M60,76h-4.5C53,76,51,78,51,80.5c0,2.5,2,4.5,4.5,4.5c2.5,0,4.5-2,4.5-4.5V76z"/>
		<polygon id="Fill-3" class="st1" points="63.9,73.1 122,73.1 122,76 61,76 61,43 63.9,43 		"/>
		<path id="Fill-5" class="st2" d="M66.1,67.2H33.2c-6.9,0-12.7,5.7-12.7,12.6c0,6.9,5.7,12.6,12.7,12.6h43.1v2.9H33.2
			c-8.5,0-15.6-7-15.6-15.5c0-8.5,7-15.5,15.6-15.5h48.6c3,0,5.4-2.4,5.4-5.4V45.1h4.6c1,0,1.4-1.2,1.1-2.1l-8.9-22.2
			C80.3,12.4,71.8,6.9,62.4,6.9c-13.1,0-23.8,10.6-23.8,23.7c0,6.2,2.4,12.1,6.8,16.5l2.4,2.5H33.2c-16.7,0-30.3,13.6-30.3,30.2
			c0,16.6,13.6,30.2,30.3,30.2h43.1v2.9H33.2C14.9,113,0,98.1,0,79.9c0-18.2,14.9-33.1,33.2-33.1h7.9c-3.5-4.6-5.4-10.2-5.4-16.1
			C35.7,15.9,47.7,4,62.4,4c10.5,0,20,6.1,24.3,15.7l0,0.1L95.7,42c1.1,2.7-0.7,6-3.8,6h-1.7v11c0,4.5-3.7,8.3-8.3,8.3H66.1z"/>
		<path id="Fill-7" class="st3" d="M71.9,98.2V110h7c4,0,7.2-3.3,7.2-7.4v-3.6l14.5,0c2.5,0,4.6-1.7,5.3-4.1h-34V98.2z M89,102v0.6
			c0,5.7-4.5,10.3-10.1,10.3H69V92h40v1.5c0,4.7-3.8,8.6-8.4,8.6L89,102z"/>
		<path id="Fill-9" class="st4" d="M62,16.9c-6.7,0-12.1,5.4-12.1,12.1c0,6.7,5.4,12.1,12.1,12.1S74.1,35.7,74.1,29
			C74.1,22.3,68.7,16.9,62,16.9 M62,14c8.3,0,15,6.7,15,15s-6.7,15-15,15c-8.3,0-15-6.7-15-15S53.7,14,62,14"/>
		<path id="Fill-11" class="st5" d="M65.1,29.5c0-2-1.6-3.6-3.6-3.6s-3.6,1.6-3.6,3.6c0,2,1.6,3.6,3.6,3.6
			C63.5,33.1,65.1,31.5,65.1,29.5 M61.5,23c3.6,0,6.5,2.9,6.5,6.5S65.1,36,61.5,36c-3.6,0-6.5-2.9-6.5-6.5S57.9,23,61.5,23"/>
		<path id="Fill-13" class="st6" d="M164.4,0h23.9C203.5,0,216,12.6,216,28V52c0,15.4-12.5,28-27.8,28h-53.5
			C119.5,80,107,67.4,107,52V28c0-15.4,12.5-28,27.8-28H164.4z M166.1,2.9h-31.4c-13.7,0-24.9,11.3-24.9,25V52
			c0,13.8,11.2,25,24.9,25h53.5c13.7,0,24.9-11.3,24.9-25V28c0-13.8-11.2-25-24.9-25H166.1z"/>
		<path id="Fill-15" class="st7" d="M160.6,87.8h-29.2c-8,0-14.5,6.4-14.5,14.2c0,7.8,6.5,14.2,14.5,14.2h56.1
			c8,0,14.5-6.4,14.5-14.2c0-7.8-6.5-14.2-14.5-14.2H160.6z M159.1,85h28.5c9.6,0,17.4,7.6,17.4,17s-7.8,17-17.4,17h-56.1
			c-9.6,0-17.4-7.6-17.4-17s7.8-17,17.4-17H159.1z"/>
		<path id="Fill-17" class="st8" d="M153.5,69.8h-6.1c-4.3,0-7.9-3.5-7.9-7.7V52H138c-3,0-4.7-3.1-3.7-5.7l7.2-17.6
			c3.2-10.4,13-17.6,24.2-17.6c14,0,25.3,11.1,25.3,24.8c0,6.3-2.4,12.3-6.8,16.9V76h-2.9V51.5l0.4-0.4c4.1-4.1,6.4-9.6,6.4-15.3
			c0-12.1-10-21.9-22.3-21.9c-9.9,0-18.6,6.4-21.4,15.6l0,0.1L137,47.3c-0.3,0.7,0.1,1.8,0.9,1.8h4.4v13c0,2.7,2.2,4.9,5,4.9h9v9
			h-2.9V69.8z"/>
		<path id="Fill-19" class="st6" d="M156,31c-2.2,0-4,1.8-4,4c0,2.2,1.8,4,4,4c2.2,0,4-1.8,4-4C160,32.8,158.2,31,156,31 M156,28
			c3.9,0,7,3.1,7,7s-3.1,7-7,7s-7-3.1-7-7S152.1,28,156,28"/>
		<path id="Fill-21" class="st9" d="M192.2,100h-5.3c-0.5,0-0.8,0.5-0.8,1.1v1.8c0,0.6,0.4,1.1,0.8,1.1h5.3c0.5,0,0.8-0.5,0.8-1.1
			v-1.8C193,100.5,192.6,100,192.2,100"/>
		<path id="Fill-23" class="st9" d="M182,100L182,100c1.1,0,2,0.9,2,2v0c0,1.1-0.9,2-2,2c-1.1,0-2-0.9-2-2v0
			C180,100.9,180.9,100,182,100"/>
		<path id="Fill-25" class="st9" d="M176,100L176,100c1.1,0,2,0.9,2,2l0,0c0,1.1-0.9,2-2,2s-2-0.9-2-2v0
			C174,100.9,174.9,100,176,100"/>
		<path id="Fill-27" class="st9" d="M171,100L171,100c1.1,0,2,0.9,2,2v0c0,1.1-0.9,2-2,2c-1.1,0-2-0.9-2-2v0
			C169,100.9,169.9,100,171,100"/>
		<path id="Fill-29" class="st9" d="M164,100L164,100c1.1,0,2,0.9,2,2v0c0,1.1-0.9,2-2,2c-1.1,0-2-0.9-2-2v0
			C162,100.9,162.9,100,164,100"/>
		<path id="Fill-31" class="st9" d="M160,100L160,100c1.1,0,2,0.9,2,2v0c0,1.1-0.9,2-2,2s-2-0.9-2-2v0C158,100.9,158.9,100,160,100"
			/>
		<path id="Fill-33" class="st9" d="M153,100L153,100c1.1,0,2,0.9,2,2v0c0,1.1-0.9,2-2,2s-2-0.9-2-2v0C151,100.9,151.9,100,153,100"
			/>
		<path id="Fill-35" class="st9" d="M149,100L149,100c1.1,0,2,0.9,2,2v0c0,1.1-0.9,2-2,2h0c-1.1,0-2-0.9-2-2v0
			C147,100.9,147.9,100,149,100"/>
		<path id="Fill-37" class="st9" d="M143,100L143,100c1.1,0,2,0.9,2,2v0c0,1.1-0.9,2-2,2c-1.1,0-2-0.9-2-2v0
			C141,100.9,141.9,100,143,100"/>
		<path id="Fill-39" class="st9" d="M137,100L137,100c1.1,0,2,0.9,2,2v0c0,1.1-0.9,2-2,2s-2-0.9-2-2v0C135,100.9,135.9,100,137,100"
			/>
		<path id="Fill-41" class="st9" d="M132,100L132,100c1.1,0,2,0.9,2,2v0c0,1.1-0.9,2-2,2c-1.1,0-2-0.9-2-2v0
			C130,100.9,130.9,100,132,100"/>
		<path id="Fill-43" class="st9" d="M125,100L125,100c1.1,0,2,0.9,2,2v0c0,1.1-0.9,2-2,2c-1.1,0-2-0.9-2-2v0
			C123,100.9,123.9,100,125,100"/>
		<path id="Fill-45" class="st9" d="M185,93L185,93c1.1,0,2,0.9,2,2v0c0,1.1-0.9,2-2,2h0c-1.1,0-2-0.9-2-2v0
			C183,93.9,183.9,93,185,93"/>
		<path id="Fill-47" class="st9" d="M181,93L181,93c1.1,0,2,0.9,2,2v0c0,1.1-0.9,2-2,2s-2-0.9-2-2v0C179,93.9,179.9,93,181,93"/>
		<path id="Fill-49" class="st9" d="M175,93L175,93c1.1,0,2,0.9,2,2v0c0,1.1-0.9,2-2,2s-2-0.9-2-2v0C173,93.9,173.9,93,175,93"/>
		<path id="Fill-51" class="st9" d="M171,93L171,93c1.1,0,2,0.9,2,2v0c0,1.1-0.9,2-2,2s-2-0.9-2-2v0C169,93.9,169.9,93,171,93"/>
		<path id="Fill-53" class="st9" d="M164,93L164,93c1.1,0,2,0.9,2,2v0c0,1.1-0.9,2-2,2s-2-0.9-2-2v0C162,93.9,162.9,93,164,93"/>
		<path id="Fill-55" class="st9" d="M159,93L159,93c1.1,0,2,0.9,2,2v0c0,1.1-0.9,2-2,2s-2-0.9-2-2v0C157,93.9,157.9,93,159,93"/>
		<path id="Fill-57" class="st9" d="M153,93L153,93c1.1,0,2,0.9,2,2v0c0,1.1-0.9,2-2,2s-2-0.9-2-2v0C151,93.9,151.9,93,153,93"/>
		<path id="Fill-59" class="st9" d="M149,93L149,93c1.1,0,2,0.9,2,2v0c0,1.1-0.9,2-2,2c-1.1,0-2-0.9-2-2l0,0
			C147,93.9,147.9,93,149,93"/>
		<path id="Fill-61" class="st9" d="M143,93L143,93c1.1,0,2,0.9,2,2v0c0,1.1-0.9,2-2,2s-2-0.9-2-2v0C141,93.9,141.9,93,143,93"/>
		<path id="Fill-63" class="st9" d="M138,93L138,93c1.1,0,2,0.9,2,2v0c0,1.1-0.9,2-2,2c-1.1,0-2-0.9-2-2v0C136,93.9,136.9,93,138,93
			"/>
		<path id="Fill-65" class="st9" d="M133,92L133,92c1.1,0,2,0.9,2,2v0c0,1.1-0.9,2-2,2s-2-0.9-2-2v0C131,92.9,131.9,92,133,92"/>
		<path id="Fill-67" class="st9" d="M185,107L185,107c1.1,0,2,0.9,2,2v0c0,1.1-0.9,2-2,2c-1.1,0-2-0.9-2-2v0
			C183,107.9,183.9,107,185,107"/>
		<path id="Fill-69" class="st9" d="M179,107L179,107c1.1,0,2,0.9,2,2v0c0,1.1-0.9,2-2,2s-2-0.9-2-2v0C177,107.9,177.9,107,179,107"
			/>
		<path id="Fill-71" class="st9" d="M137,107L137,107c1.1,0,2,0.9,2,2v0c0,1.1-0.9,2-2,2c-1.1,0-2-0.9-2-2v0
			C135,107.9,135.9,107,137,107"/>
		<path id="Fill-73" class="st9" d="M132,107L132,107c1.1,0,2,0.9,2,2v0c0,1.1-0.9,2-2,2s-2-0.9-2-2v0C130,107.9,130.9,107,132,107"
			/>
		<path id="Fill-75" class="st9" d="M143.6,107h30.7c0.9,0,1.6,0.9,1.6,2c0,1.1-0.7,2-1.6,2h-30.7c-0.9,0-1.6-0.9-1.6-2
			C142,107.9,142.7,107,143.6,107"/>
		<path id="Fill-77" class="st10" d="M158.7,53.3c-3.8,4.9-9.7,7.7-16.1,7.7c-0.2,0-0.4,0-0.6,0v-2.9c0.2,0,0.4,0,0.6,0
			c5.4,0,10.5-2.4,13.6-6.5c0.5-0.6,1.5-0.8,2.1-0.3C159.1,51.7,159.2,52.6,158.7,53.3"/>
	</g>
</g>
</svg>
